X:1
T:Charter Oak -- Reel
R:reel
C:ZEKE BACUS.
B:Ryan's Mammoth Collection
N:354
Z:Contributed by Ray Davies,  ray:davies99.freeserve.co.uk
M:2/4
L:1/16
K:A
vcB"^Segno"|\
vA2A,2C2E2 | A3B cABc | A2A,2C2E2 | B,2AB cdBc |
A2A,2C2E2 | AGAB ABce | {g}fefg agaf | ecAc BdcB |]
vAc((3efg) aece | faeg afec | Ac((3efg) aefe | dcBA GABG |
Ac((3efg) aece | faeg a2((3efg) | agbg af((3efg) | \
afec BdcB "^Segno""_D.S."|]
